X:1
T:Title
%%score { ( 1 4 ) | ( 2 3 ) }
L:1/8
M:4/4
K:Bb
V:1 treble nm="Grand Piano"
V:4 treble 
V:2 bass 
V:3 bass 
V:1
 z4 z2[Q:1/4=100] FF | [F,DF]2 [B,D][CE] [DF]2 [Fd]2 | [Ec]4 [B,DB]2 [B,FB][B,FA] | G2 B2 A2 GA | %4
[M:3/4] [DB]6 |[M:1/4] FF |[M:4/4] [F,DF]2 [B,D][CE] [DF]2 [Dd]2 | [Dc]4[K:bass][K:treble] z4 | %8
 [DA]2 [G,DG]2 [A,CF]2 [B,=EG]2 |[M:3/4] [A,F]6 |[M:1/4] FF |[M:4/4] d2 c2 z2 dc | %12
 [DB]2 [DB]2 z2 [FB][FA] | [EG]2 [FG]2 [EG]2 cB |[M:3/4] A6 |[M:1/4] FF |[M:4/4] [Dd]2 cB e2 d2 | %17
 G2 [Ec]2 z2 [G,EG][G,EG] | [EB]2 [CEA]2 [CEG]2 [CEA]2 |[M:3/4] [B,DB]6 |[M:1/4] BB | %21
[M:4/4] [CEB]2 [CEA]2 z2 [CEG][CEA] | [B,DG]2 [B,DF]2 z2 [B,DF][B,DF] | %23
 [B,EG]2 [=B,FG]2 [CEG]2 .[C=Ec]2 |[M:3/4] [CFA]6 |[M:1/4] [D^Fd][DFc] | %26
[M:4/4] [DGB]2 [DGB]2 [CGc]2 [Gd]2 | [Gf]2 [Ge]2 z2 [Ge][Ge] | [Gd]2 [Gc]2 [FB]2 [EA]2 | %29
[M:3/4] [DB]6 |] %30
V:2
 z4 z2 F,F, | B,,2 [B,,F,]2 [B,,F,]2 [B,,B,]2 | A,2 G,A, B,,2 D,D, | %3
 [E,B,E]2 [E,G,E]2 [F,E]2 [F,E]2 |[M:3/4] [B,,F,]6 |[M:1/4] F,F, | %6
[M:4/4] B,,2 [B,,F,]2 [B,,F,]2 [B,,F,]2 | ^F,2 z2 [G,,G,]2 [G,,G,][G,,G,] | [B,,G,]2 B,,2 C,2 C,2 | %9
[M:3/4] F,6 |[M:1/4] F,F, |[M:4/4] [F,A,E]2 [F,A,E]2 z2 [F,A,E][F,A,E] | %12
 [B,,B,]2 [B,,B,]2 z2 [D,B,][D,B,] | [E,B,]2 [D,=B,]2 [C,C]2 [C,C]2 |[M:3/4] [F,CF]6 | %15
[M:1/4] [F,A,E][F,A,E] |[M:4/4] [B,,B,]2[K:treble] [_A,B,D]2 [G,B,E]2 [G,=B,F]2 | %17
 [CE]2[K:bass] [C,G,]2 z2 C,C, | F,2 F,2 F,2 F,2 |[M:3/4] B,,6 |[M:1/4] B,B, | %21
[M:4/4] C,2 F,2 z2 F,F, | B,,2 B,,2 z2 B,,B,, | E,2 D,2 C,2 z[K:treble] B |[M:3/4][K:bass] F,6 | %25
[M:1/4] D,D, |[M:4/4] G,2 G,2 E,2 [D,=B,]2 | [C,C]2 [C,C]2 z2 [C,C][C,C] | %28
 [D,=B,]2 [E,C]2 [F,D]2 [F,C]2 |[M:3/4] [B,,B,]6 |] %30
V:3
 x8 | x8 | B,,4 z4 | x8 |[M:3/4] x6 |[M:1/4] x2 |[M:4/4] x8 | A,,4 z4 | x8 |[M:3/4] x6 | %10
[M:1/4] x2 |[M:4/4] x8 | x8 | x8 |[M:3/4] x6 |[M:1/4] x2 |[M:4/4] x2[K:treble] x6 | x2[K:bass] x6 | %18
 x8 |[M:3/4] x6 |[M:1/4] x2 |[M:4/4] x8 | x8 | z4 z2 C,2[K:treble] |[M:3/4][K:bass] x6 | %25
[M:1/4] x2 |[M:4/4] x8 | x8 | x8 |[M:3/4] x6 |] %30
V:4
 x8 | x8 | x8 | x8 |[M:3/4] x6 |[M:1/4] x2 |[M:4/4] x8 | %7
 z2[K:bass] =E,^F,[K:treble] [DB]2 [DB][DB] | x8 |[M:3/4] x6 |[M:1/4] x2 |[M:4/4] x8 | x8 | %13
 z4 z2 =E2 |[M:3/4] x6 |[M:1/4] x2 |[M:4/4] x8 | x8 | x8 |[M:3/4] x6 |[M:1/4] x2 |[M:4/4] x8 | x8 | %23
 x8 |[M:3/4] x6 |[M:1/4] x2 |[M:4/4] x8 | x8 | x8 |[M:3/4] x6 |] %30

